X: 69
M:6/8
L:1/8
K:G
fdf ece | dBg dBG | c2A c2A |
c2e ecA | c2A c2A | GBd dBG |
c2A c2A | c2e ece | ceg dBG |
gfg d2B | cde dBG | A2B dBG ::


